world_stage/static/flags/rect/pse.svg

<svg height="800" viewBox="0 0 1200 800" width="1200" xmlns="http://www.w3.org/2000/svg"><g transform="matrix(1.3333333 0 0 -1.3333333 0 800)"><path d="m0 400h900v200.001h-900z"/><path d="m0 200h900v200h-900z" fill="#fff"/><path d="m0 0h900v200h-900z" fill="#007a3d"/></g><path d="m0 0v-600l370.876 299.999z" fill="#ce1126" transform="matrix(1.3333333 0 0 -1.3333333 0 -.0004)"/></svg>

<?xml version="1.0" encoding="UTF-8" standalone="no"?>
<!-- Created with Inkscape (http://www.inkscape.org/) -->

<svg
   version="1.1"
   id="svg1"
   width="1200"
   height="800"
   viewBox="0 0 1200 800"
   sodipodi:docname="ps.ai"
   xmlns:inkscape="http://www.inkscape.org/namespaces/inkscape"
   xmlns:sodipodi="http://sodipodi.sourceforge.net/DTD/sodipodi-0.dtd"
   xmlns="http://www.w3.org/2000/svg"
   xmlns:svg="http://www.w3.org/2000/svg">
  <defs
     id="defs1" />
  <sodipodi:namedview
     id="namedview1"
     pagecolor="#ffffff"
     bordercolor="#000000"
     borderopacity="0.25"
     inkscape:showpageshadow="2"
     inkscape:pageopacity="0.0"
     inkscape:pagecheckerboard="0"
     inkscape:deskcolor="#d1d1d1">
    <inkscape:page
       x="0"
       y="0"
       inkscape:label="1"
       id="page1"
       width="1200"
       height="800"
       margin="0"
       bleed="0" />
  </sodipodi:namedview>
  <g
     id="layer-MC0"
     inkscape:groupmode="layer"
     inkscape:label="Layer 1">
    <path
       id="path1"
       d="M 0,400 H 900 V 600.001 H 0 Z"
       style="fill:#000000;fill-opacity:1;fill-rule:nonzero;stroke:none"
       transform="matrix(1.3333333,0,0,-1.3333333,0,800)" />
    <path
       id="path2"
       d="M 0,200 H 900 V 400 H 0 Z"
       style="fill:#ffffff;fill-opacity:1;fill-rule:nonzero;stroke:none"
       transform="matrix(1.3333333,0,0,-1.3333333,0,800)" />
    <path
       id="path3"
       d="M 0,0 H 900 V 200 H 0 Z"
       style="fill:#007a3d;fill-opacity:1;fill-rule:nonzero;stroke:none"
       transform="matrix(1.3333333,0,0,-1.3333333,0,800)" />
    <path
       id="path4"
       d="m 0,0 v -600 l 370.876,299.999 z"
       style="fill:#ce1126;fill-opacity:1;fill-rule:nonzero;stroke:none"
       transform="matrix(1.3333333,0,0,-1.3333333,0,-4e-4)" />
  </g>
</svg>
